!!!!SEGMENT: pl-wtm--r-1227--008_lodwigowski-edward-stefan--opuszczona.krn
!!!cenid: 18xx:1948
!!!COM: Łodwigowski, Edward Stefan
!!!COM-rismid: pe30111147
!!!CDT: 1815/08/14-1895/11/12
!!!CNT: Polish
!!!OTL: Opuszczona
!!!PDT:
!!!AGN:
!!!SMS-siglum: PL-Wtm
!!!SMS-shelfmark: R 1227
!!!SMS-shelfwork: 008 W
!!!SMS-variant:
!!!SMS-altvar:
!!!NIFC-rismid: 1001084041
!!!URL-scan: http://repozytorium.nifc.pl/skany/pl-wtm-nut--r1226-1227
!!!ONB-nifc: UWAGA: No. 80
!!!OMD: Lagrimoso.
!!!AIN: 1 forte
!!!key:
**kern	**fing	**kern	**fing	**dynam
*part1	*part1	*part1	*part1	*part1
*staff2	*staff2	*staff1	*staff1	*
*Iforte	*	*Iforte	*	*
*I"Fortepian	*	*I"Fortepian	*	*
*clefF4	*	*clefG2	*	*
*k[]	*	*k[]	*	*
*a:	*	*a:	*	*
*M3/4	*	*M3/4	*	*
*all\right	*	*all\right	*	*
=1	=1	=1	=1	=1
*^	*	*	*	*
*2\right	*2\right	*below	*	*	*
!	!	!	!LO:TX:a:Bi:t=No 80.	!	!
!	!LO:N:vis=2	!	!LO:TX:a:i:t=Opuszczona. I.F. Dobrzyńskiego.	!	!
2.A/	4A\	4	(8ee\L	5	p
.	.	.	8cc\J	3	.
.	4e 4c\	.	4b\	.	.
.	4e 4c\	.	4a\)	.	.
=2	=2	=2	=2	=2	=2
!	!LO:N:vis=2	!	!	!	!
2.D/	4D\	.	(8aa\L	5	.
.	.	.	8ff\J	3	>
.	4B 4F\	.	4ee\	.	.
.	4B 4F\	.	4dd\)	.	]
=3	=3	=3	=3	=3	=3
!	!LO:N:vis=2	!	!	!	!
2.E/	4E\	.	(8dd\L	4	.
.	.	.	8b\J	.	.
.	4d 4B\	.	4a/	.	.
.	4d 4B\	.	4g#X/)	.	.
=4	=4	=4	=4	=4	=4
!	!LO:N:vis=2	!	!	!	!
2A/	4A\	.	8ff\L	5	.
.	.	.	(8ee\J	.	>
.	4e 4c\	.	4dd\	.	.
4ryy	4e 4c\	.	4cc\)	.	]
=5	=5	=5	=5	=5	=5
!	!LO:N:vis=2	!	!	!	!
2.C/	4C\	.	(8ee\L	5	.
.	.	.	8cc\J	.	.
.	4A 4E\	.	4b\	.	.
.	4A 4E\	.	4a\)	.	.
!!LO:LB:g=original
=6	=6	=6	=6	=6	=6
!	!LO:N:vis=2	!	!	!	!LO:DY:rj
2D/	4D\	.	(8aa\L	5	f
.	.	.	8ff\J	3	.
.	4B-X 4F\	.	4.dd\	1	.
4ryy	4B- 4F\	.	.	.	.
.	.	.	8b-X\)	2	.
=7	=7	=7	=7	=7	=7
!	!LO:N:vis=2	!	!	!	!
2.E/	4E\	.	(8a\L	1	.
.	.	.	8bn\	.	.
.	4c 4A\	.	8cc\	.	.
.	.	.	8dd\	.	.
.	4d 4B\	.	8ee\	.	.
.	.	.	8g#X\J	2	.
=8	=8	=8	=8	=8	=8
!	!LO:N:vis=2	!	!	!	!
2A/	4A\	.	(8b\L	4	.
.	.	.	8a\J)	3	.
.	4e 4c\	.	4a\)	2	.
4ryy	4d#X 4c 4A 4F#X\	.	4r	.	.
=9	=9	=9	=9	=9	=9
!	!LO:N:vis=2	!	!	!	!
2.G/	4G\	.	(8b\L	2	.
.	.	.	8cc\J	.	.
.	4f 4d 4B\	.	4dd\	.	.
.	4f 4d 4B\	.	4g/	.	.
=10	=10	=10	=10	=10	=10
!	!LO:N:vis=2	!	!	!	!
2.G/	4G\	.	8cc\L	3	.
.	.	.	8dd\J	.	.
.	4e 4c\	.	4ee\	.	.
.	4e 4c\	.	4cc\)	.	.
=11	=11	=11	=11	=11	=11
!	!LO:N:vis=2	!	!	!	!
2.G/	4G\	.	(8b\L	2	.
.	.	.	8cc\J	.	.
.	4f 4d 4B\	.	4dd\	.	.
.	4f 4d 4B\	.	4g/	.	.
=12	=12	=12	=12	=12	=12
!	!LO:N:vis=2	!	!	!	!
2c/	4c\	.	8cc\L	.	.
!	!	!	!LO:TX:b:i:t=ralen:dur=5e	!	!
.	.	.	8dd\J	.	.
.	4g 4e\	.	4ee\)	.	.
4ryy	4g#X 4e 4d 4B\	.	4ee\	.	.
!!LO:LB:g=original
=13	=13	=13	=13	=13	=13
!	!LO:N:vis=2	!	!LO:TX:a:i:t=a tempo.	!	!
2.A/	4A\	.	(8ee\L	5	.
.	.	.	8cc\J	.	.
.	4e 4c\	.	4b\	.	.
.	4e 4c\	.	4a\)	.	.
=14	=14	=14	=14	=14	=14
!	!LO:N:vis=2	!	!	!	!
2D/	4D\	.	(8aa\L	5	.
.	.	.	8ff\J	3	.
.	4B-X 4F\	.	4.dd\	1	.
4ryy	4B- 4F\	.	.	.	.
.	.	.	8b-X\)	2	.
=15	=15	=15	=15	=15	=15
!	!LO:N:vis=2	!	!	!	!
2.E/	4E\	.	(8a^\L	1	.
!	!	!	!LO:TX:b:i:t=ralentan:dur=5e	!	!
.	.	.	8b^\	.	.
.	4c 4A\	.	8cc^\	.	.
.	.	.	8dd^\	.	.
.	4d 4B\	.	8ee^\	.	.
.	.	.	8g#X\J	2	.
=16	=16	=16	=16	=16	=16
!	!LO:N:vis=2	!	!	!	!
2A/	4A\	.	(8b\L	.	.
.	.	.	8aJ)	.	.
.	4e 4c\	.	8a|\)	.	.
.	.	.	8r	.	.
4r	4ryy	.	4ee\	.	.
*v	*v	*	*	*	*
=17	=17	=17	=17	=17
!	!	!LO:TX:a:i:t=a tem&colon;	!	!
2d 2G#X 2E\	.	8ee\L	1	.
.	.	(16qqff/LL	.	.
.	.	16qqgg/JJ	.	.
.	.	(8ff\)	.	.
.	.	8ee\	.	.
.	.	8ddd\	5	.
4d 4G# 4E\	.	8ccc\	.	.
.	.	8bb\J	.	.
=18	=18	=18	=18	=18
2c 2A 2E\	.	8ccc\L	.	.
.	.	8bb\J	.	.
.	.	4aa\	.	.
4c 4A 4E\	.	8gg\L	1	.
.	.	8ff\J)	2	.
!!LO:LB:g=original
=19	=19	=19	=19	=19
2d 2G#X 2E\	.	(8ee\L	1	.
.	.	8ffM\	.	.
.	.	8ee\	.	.
.	.	8ddd\	.	.
4d 4G# 4E\	.	8ccc\	.	.
.	.	8bb\J	.	.
=20	=20	=20	=20	=20
*^	*	*	*	*
4r	2A\	4	8ccc\L	4	.
.	.	.	8bb\J	.	.
2e 2c/	.	.	4.aa\	.	.
.	4A\	.	.	.	.
.	.	.	8bb\)	.	.
=21	=21	=21	=21	=21	=21
4r	2F\	.	(8ccc\L	.	.
.	.	.	8bb\J	.	.
2c 2A/	.	2 1	4.aa\	.	.
.	.	.	.	.	<
.	4E\	.	.	.	.
.	.	.	8bb\	.	[[
=22	=22	=22	=22	=22	=22
4r	2D#X\	.	8ccc\L	.	.
.	.	.	8bb\J	.	.
2c 2A/	.	.	4aa\	.	.
!	!	!	!LO:TX:b:i:t=ritenuto:dur=3q	!	!
.	4D#\	.	8gg\L	.	.
.	.	.	8ff\J)	4	.
=23	=23	=23	=23	=23	=23
4r	2E\	.	(8ee\L	.	.
.	.	.	(16qqff/LL	.	.
.	.	.	16qqgg/JJ	.	.
.	.	.	8ff\J)	.	.
4c 4A/	.	.	4ee\	.	.
4d/	4G#X 4E\	.	8b\L	.	.
.	.	.	8cc\J	.	.
=24	=24	=24	=24	=24	=24
4c'/	4A'\	.	4a'/)	.	.
4AA'/	2ryy	.	4r	.	.
4r	.	.	4r	.	.
*v	*v	*	*	*	*
==	==	==	==	==
*-	*-	*-	*-	*-
!!!system-decoration: {p1}
!!!RDF**kern: > = above
!!!RDF**kern: < = below
!!!RDF**kern: | = vertical stroke
!!!ENC: Andrzej Kubiczek
!!!END: 2021-05-02
!!!ENC: Andrzej Gręziak
!!!END: 2021-04-17
